X: 12
T:Cawl Cennin
T:Leek Soup
M:6/8
L:1/8
Q:130
S:Band y Brodyr
R:Jig
A:Wales
Z:brian_martin12345@yahoo.com
K:D
A|dcBA2G|FGAE2E|FGA Bcd|Bed cBA|
dcBA2G|FGAE2E|FGA Bcd|edcd2:||
c/d/|ecA ecA|def ecA|def ecA|dcBA2A|
dcBA2G|FGAE2E|FGA Bcd|edcd2:||
